!!! OTL: Literature139
!!! Chapter: 5
!!! Section: IV
!!! Page: 377
!!! Mode: 
!!! Encoder: DJB
**kern
*staff1
*I"Piano
=1-
*clefG2
*k[]
*C:
*M4/4
4G/
8.c/L
16e/Jk
8g/L
8a/J
8.g/L
16e/Jk
=2
8g/L
8a/J
8.b\L
16cc\Jk
8g/L
8e/
8c/
8d/J
=3
4e-/
8e-/L
8b/J
4e-/
8e-/L
8b/J
=4
4e-/
4B-/
4.B-/
8A/
=5
4B-/
8.e-/L
16g/Jk
8b-\L
8cc\J
8.b-/L
16g/Jk
=6
!!linebreak:original
8b-\L
8cc\J
8.dd\L
16ee-\Jk
8b-/L
8g/
8e-/
8f/J
=7
4f#/
8f#/L
8dd/J
4f#/
8f#/L
8dd/J
=8
4g/
4r
2r
==
*-
